assets/home-tab/Asset/Mobilepostpaid.svg

<svg width="26" height="26" viewBox="0 0 26 26" fill="none" xmlns="http://www.w3.org/2000/svg">
<path d="M12.9995 0C13.4872 0 14.0878 0.0202301 14.7388 0.0537109C17.7348 0.207806 19.2331 0.285625 20.2729 1.33398C21.3127 2.38239 21.3791 3.92001 21.5122 6.99414C21.5985 8.9876 21.6665 11.1475 21.6665 13.0059C21.6665 14.8574 21.599 17.0087 21.5132 18.9961C21.38 22.0786 21.3137 23.6202 20.2729 24.6689C19.2321 25.7177 17.7257 25.7944 14.7144 25.9473C14.0669 25.9801 13.4741 26 12.9995 26C12.5051 26 11.8827 25.9777 11.2036 25.9424C8.22564 25.7876 6.7364 25.7103 5.69678 24.6602C4.65709 23.6095 4.59438 22.0989 4.46924 19.0791C4.39201 17.2154 4.3335 15.1105 4.3335 13.0059C4.3335 10.893 4.39253 8.78019 4.47021 6.91113C4.59539 3.89938 4.65805 2.3931 5.69678 1.34277C6.73548 0.292785 8.21768 0.214765 11.1812 0.0585938C11.8629 0.0226694 12.4918 1.32644e-05 12.9995 0ZM12.1323 2.16699C9.71009 2.16699 8.49878 2.16651 7.67236 2.94238C6.84593 3.71827 6.77343 4.87417 6.62744 7.18555C6.55325 8.36014 6.49952 9.62248 6.49951 10.833C6.49951 12.0436 6.55325 13.3067 6.62744 14.4814C6.77339 16.7923 6.84627 17.9478 7.67236 18.7236C8.49878 19.4995 9.71009 19.5 12.1323 19.5H13.7954C16.2487 19.5 17.4754 19.4997 18.3013 18.7266C19.1271 17.9533 19.2051 16.7714 19.3608 14.4072C19.4411 13.1884 19.4995 11.9246 19.4995 10.833C19.4995 9.74158 19.4411 8.4784 19.3608 7.25977C19.2051 4.89558 19.1271 3.71271 18.3013 2.93945C17.4754 2.16661 16.2483 2.16699 13.7954 2.16699H12.1323Z" fill="#0066B4"/>
<rect x="10.8334" y="21.6666" width="4.33333" height="2.16667" rx="1.08333" fill="#E7F4FF"/>
</svg>

<svg xmlns="http://www.w3.org/2000/svg" width="26" height="26" fill="none" viewBox="0 0 26 26"><path fill="#0066b4" d="M13 0c.487 0 1.088.02 1.739.054 2.996.154 4.494.232 5.534 1.28s1.106 2.586 1.24 5.66c.085 1.994.153 4.154.153 6.012 0 1.851-.067 4.003-.153 5.99-.133 3.083-.2 4.624-1.24 5.673s-2.547 1.125-5.559 1.278c-.647.033-1.24.053-1.715.053a36 36 0 0 1-1.795-.058c-2.978-.154-4.468-.232-5.507-1.282-1.04-1.05-1.103-2.561-1.228-5.58a149 149 0 0 1-.136-6.074c0-2.113.06-4.226.137-6.095.125-3.012.188-4.518 1.227-5.568C6.735.293 8.217.215 11.18.059A36 36 0 0 1 13 0m-.868 2.167c-2.422 0-3.633 0-4.46.775-.826.776-.899 1.932-1.045 4.244a59 59 0 0 0-.127 3.647c0 1.21.053 2.474.127 3.648.146 2.311.22 3.467 1.045 4.243.827.776 2.038.776 4.46.776h1.663c2.454 0 3.68 0 4.506-.773.826-.774.904-1.956 1.06-4.32.08-1.219.139-2.482.139-3.574s-.059-2.355-.14-3.573c-.155-2.364-.233-3.547-1.059-4.32s-2.053-.773-4.506-.773z"/><rect width="4.333" height="2.167" x="10.833" y="21.667" fill="#e7f4ff" rx="1.083"/></svg>
